temple-buddhist-outline.svg

<svg fill="currentColor" viewBox="0 0 24 24"><path d="M21 9c0 1.1-.9 2-2 2h-1V8.9c1.7-.4 3-2 3-3.8h-2c0 1.1-.9 2-2 2h-.5L12 1 7.5 7H7c-1.1 0-2-.9-2-2H3c0 1.9 1.3 3.4 3 3.8V11H5c-1.1 0-2-.9-2-2H1c0 1.9 1.3 3.4 3 3.8V22h7v-4c0-.5.4-1 1-1s1 .5 1 1v4h7v-9.1c1.7-.4 3-2 3-3.8zm-9-4.7L14 7h-4zM8 9h8v2H8zm10 11h-3v-2c0-1.6-1.4-3-3-3s-3 1.4-3 3v2H6v-7h12z"/></svg>

<svg  viewBox="0 0 24 24" fill="currentColor"><path  d="M21 9C21 10.1 20.1 11 19 11H18V8.9C19.7 8.5 21 6.9 21 5.1H19C19 6.2 18.1 7.1 17 7.1H16.5L12 1L7.5 7H7C5.9 7 5 6.1 5 5H3C3 6.9 4.3 8.4 6 8.8V11H5C3.9 11 3 10.1 3 9H1C1 10.9 2.3 12.4 4 12.8V22H11V18C11 17.5 11.4 17 12 17S13 17.5 13 18V22H20V12.9C21.7 12.5 23 10.9 23 9.1L21 9M12 4.3L14 7H10L12 4.3M8 9H16V11H8V9M18 20H15V18C15 16.4 13.6 15 12 15S9 16.4 9 18V20H6V13H18V20Z"/></svg>
